svgs/thin/users-medical.svg

<svg xmlns="http://www.w3.org/2000/svg" viewBox="0 0 640 512"><!--! Font Awesome Pro 6.3.0 by @fontawesome - https://fontawesome.com License - https://fontawesome.com/license (Commercial License) Copyright 2023 Fonticons, Inc. --><path d="M480 192c-5.969 0-11.97 .7031-17.84 2.094c-4.297 1.016-6.953 5.328-5.938 9.625c1.006 4.303 5.324 7.074 9.689 5.92C471.6 208.1 478 208 483.9 208h72.63C593.7 208 624 240.3 624 280C624 284.4 620.8 288 616.9 288H600c-4.418 0-8 3.582-8 8s3.582 8 8 8h16.91C629.6 304 640 293.2 640 280C640 231.5 602.5 192 556.5 192H480zM319.9 320c57.41 0 103.1-46.56 103.1-104c0-57.44-46.54-104-103.1-104c-57.41 0-103.1 46.56-103.1 104C215.9 273.4 262.5 320 319.9 320zM319.9 128c48.5 0 87.96 39.48 87.96 88S368.4 304 319.9 304S231.9 264.5 231.9 216S271.4 128 319.9 128zM512 160c44.18 0 80-35.82 80-80S556.2 0 512 0c-44.18 0-80 35.82-80 80S467.8 160 512 160zM512 16c35.29 0 64 28.71 64 64s-28.71 64-64 64s-64-28.71-64-64S476.7 16 512 16zM624 376h-40V336c0-8.836-7.162-16-16-16h-48c-8.836 0-16 7.164-16 16v40H464c-8.836 0-16 7.164-16 16v48c0 8.836 7.164 16 16 16h40v40c0 8.836 7.164 16 16 16h48c8.838 0 16-7.164 16-16v-40h40c8.838 0 16-7.164 16-16v-48C640 383.2 632.8 376 624 376zM624 440h-56v56h-48v-56H464v-48h56V336h48v56h56V440zM464.8 496h-308.3C149.6 496 144 491.2 144 485.3C144 420.6 200.6 368 270.1 368H369.9c14.61 0 28.63 2.342 41.69 6.617c3.734 1.223 7.886-.3223 9.618-3.85c.0234-.0488-.0254 .0469 0 0c2.188-4.416 .1631-9.75-4.517-11.29C402 354.7 386.3 352 369.9 352H270.1C191.6 352 128 411.7 128 485.3C128 500.1 140.7 512 156.4 512h308.4c4.828 0 8.561-4.365 7.783-9.133c-.0098-.0527 .0098 .0527 0 0C471.9 498.1 468.7 496 464.8 496zM128 160c44.18 0 80-35.82 80-80S172.2 0 128 0C83.82 0 48 35.82 48 80S83.82 160 128 160zM128 16c35.29 0 64 28.71 64 64s-28.71 64-64 64s-64-28.71-64-64S92.71 16 128 16zM200 296C200 291.6 196.4 288 192 288H23.09C19.19 288 16 284.4 16 280c0-39.7 30.28-72 67.5-72H160c4.734 0 9.5 .5625 14.16 1.656C178.5 210.8 182.8 208 183.8 203.7c1.016-4.297-1.641-8.609-5.938-9.625C171.1 192.7 165.1 192 160 192H83.5C37.45 192 0 231.5 0 280C0 293.2 10.36 304 23.09 304H192C196.4 304 200 300.4 200 296z"/></svg>

<svg xmlns="http://www.w3.org/2000/svg" viewBox="0 0 640 512"><!-- Font Awesome Pro 6.0.0-alpha2 by @fontawesome - https://fontawesome.com License - https://fontawesome.com/license (Commercial License) --><path d="M480 192C474.031 192 468.031 192.703 462.156 194.094C457.859 195.109 455.203 199.422 456.219 203.719C457.225 208.021 461.543 210.793 465.908 209.639C471.578 208.141 478.002 208 483.865 208H556.5C593.719 208 624 240.297 624 280C624 284.406 620.812 288 616.906 288H600C595.582 288 592 291.582 592 296S595.582 304 600 304H616.906C629.641 304 640 293.234 640 280C640 231.469 602.547 192 556.5 192H480ZM319.859 320C377.273 320 423.814 273.436 423.814 216C423.814 158.562 377.273 112 319.859 112C262.451 112 215.904 158.562 215.904 216C215.904 273.436 262.451 320 319.859 320ZM319.859 128C368.357 128 407.814 167.477 407.814 216S368.357 304 319.859 304S231.904 264.523 231.904 216S271.361 128 319.859 128ZM512 160C556.184 160 592 124.182 592 80S556.184 0 512 0C467.82 0 432 35.818 432 80S467.82 160 512 160ZM512 16C547.289 16 576 44.711 576 80S547.289 144 512 144S448 115.289 448 80S476.711 16 512 16ZM624 376H584V336C584 327.164 576.838 320 568 320H520C511.164 320 504 327.164 504 336V376H464C455.164 376 448 383.164 448 392V440C448 448.836 455.164 456 464 456H504V496C504 504.836 511.164 512 520 512H568C576.838 512 584 504.836 584 496V456H624C632.838 456 640 448.836 640 440V392C640 383.164 632.838 376 624 376ZM624 440H568V496H520V440H464V392H520V336H568V392H624V440ZM464.754 496H156.422C149.572 496 144 491.215 144 485.332C144 420.635 200.574 368 270.113 368H369.887C384.494 368 398.52 370.342 411.574 374.617C415.309 375.84 419.424 374.367 421.156 370.84C421.18 370.791 421.203 370.742 421.229 370.695C423.416 366.279 421.355 361.018 416.676 359.479C402.023 354.66 386.297 352 369.887 352H270.113C191.631 352 128 411.693 128 485.332C128 500.059 140.727 512 156.422 512H464.777C469.605 512 473.352 507.715 472.574 502.947C472.564 502.895 472.557 502.84 472.547 502.787C471.928 498.904 468.684 496 464.754 496ZM128 160C172.184 160 208 124.182 208 80S172.184 0 128 0C83.82 0 48 35.818 48 80S83.82 160 128 160ZM128 16C163.289 16 192 44.711 192 80S163.289 144 128 144S64 115.289 64 80S92.711 16 128 16ZM200 296C200 291.578 196.422 288 192 288H23.094C19.188 288 16 284.406 16 280C16 240.297 46.281 208 83.5 208H160C164.734 208 169.5 208.562 174.156 209.656C178.453 210.766 182.781 208 183.781 203.719C184.797 199.422 182.141 195.109 177.844 194.094C171.969 192.703 165.969 192 160 192H83.5C37.453 192 0 231.469 0 280C0 293.234 10.359 304 23.094 304H192C196.422 304 200 300.422 200 296Z"/></svg>
